X: 14041
T: Fraser's
R: jig
M: 6/8
K: Gmixolydian
|:D|GAG d3|dcd g3|f2 c dfd|cAF AGF|
GAG d3|dcd g2 e|f2 d cAF|1 G3 G2:|2 G3 G||
|:Bd|g3 def|gfg d2 e|f2 c dfd|
[1 cAF F2 f|g3 def|gfg d2 e|f2 d cAF|G3 G:|
[2 cAF AGF|GAG dcd|gfg a2 g|f2 d cAF|G3 G2||

